exports/overdose-deaths-due-to-opioids-in-the-us-1999-2015_v1_850x600.svg

<svg xmlns="http://www.w3.org/2000/svg" version="1.1" style="background-color:#fff;-webkit-font-smoothing:antialiased" width="850" height="600" font-family="'Helvetica Neue',Helvetica,Arial,sans-serif" font-size="18" text-rendering="optimizeLegibility"><g class="ChartTab"><g class="HeaderView"><g opacity=".8" transform="matrix(.31 0 0 .31 770 15)"><a xmlns:xlink="http://www.w3.org/1999/xlink" xlink:href="https://ourworldindata.org" target="_blank"><g><path fill="#1B2543" d="M0 0h211.2v130.1H0z"/><path fill="#E63912" d="M0 112.2h211.2v17.9H0z"/><g><path fill="none" d="M1.2 12.3h210.2v99.2H1.2z"/><path fill="#FFF" d="M37.8 32.2c0 12.7-7.7 19.4-17.1 19.4-9.7 0-16.6-7.5-16.6-18.7 0-11.7 7.3-19.3 17.1-19.3 10.1.1 16.6 7.7 16.6 18.6zm-28.6.6c0 7.9 4.3 14.9 11.8 14.9 7.5 0 11.8-6.9 11.8-15.3 0-7.3-3.8-14.9-11.8-14.9-7.9 0-11.8 7.3-11.8 15.3zM62.7 43.8c0 2.7.1 5.1.2 7.2h-4.3l-.3-4.3h-.1c-1.3 2.1-4 4.9-8.8 4.9-4.2 0-9.1-2.3-9.1-11.6V24.6h4.8v14.6c0 5 1.5 8.4 5.9 8.4 3.2 0 5.5-2.2 6.3-4.4.3-.7.4-1.6.4-2.5V24.6h4.8v19.2zM67.3 32.8c0-3.1-.1-5.8-.2-8.2h4.2l.2 5.2h.2c1.2-3.5 4.1-5.8 7.3-5.8.5 0 .9.1 1.4.2v4.5c-.5-.1-1-.2-1.6-.2-3.4 0-5.8 2.6-6.5 6.2-.1.7-.2 1.4-.2 2.2V51h-4.8V32.8zM95.4 51L86 14.2h5l4.4 18.6c1.1 4.6 2.1 9.2 2.7 12.7h.1c.6-3.7 1.8-8 3-12.8l4.9-18.5h5l4.5 18.7c1 4.4 2 8.7 2.6 12.6h.1c.8-4 1.8-8.1 3-12.7l4.9-18.5h4.9L120.6 51h-5L111 31.9c-1.1-4.7-1.9-8.3-2.4-12h-.1c-.7 3.7-1.5 7.3-2.8 12L100.4 51h-5zM154.9 37.6c0 9.8-6.8 14-13.2 14-7.2 0-12.7-5.2-12.7-13.6 0-8.8 5.8-14 13.1-14 7.7 0 12.8 5.5 12.8 13.6zm-21 .3c0 5.8 3.3 10.1 8 10.1 4.6 0 8-4.3 8-10.3 0-4.5-2.2-10.1-7.9-10.1s-8.1 5.2-8.1 10.3zM158.2 32.8c0-3.1-.1-5.8-.2-8.2h4.2l.2 5.2h.2c1.2-3.5 4.1-5.8 7.3-5.8.5 0 .9.1 1.4.2v4.5c-.5-.1-1-.2-1.6-.2-3.4 0-5.8 2.6-6.5 6.2-.1.7-.2 1.4-.2 2.2V51h-4.8V32.8zM173.5 12.3h4.8V51h-4.8V12.3zM206.5 12.3v31.9c0 2.3.1 5 .2 6.8h-4.3l-.2-4.6h-.2c-1.5 2.9-4.7 5.2-9 5.2-6.4 0-11.3-5.4-11.3-13.4-.1-8.8 5.4-14.2 11.9-14.2 4 0 6.8 1.9 8 4h.1V12.3h4.8zm-4.8 23.1c0-.6-.1-1.4-.2-2a7 7 0 00-6.9-5.6c-5 0-7.9 4.4-7.9 10.2 0 5.3 2.6 9.8 7.8 9.8 3.2 0 6.2-2.1 7.1-5.7.2-.7.2-1.3.2-2.1v-4.6zM42.8 64c.1 1.6-1.1 2.9-3.1 2.9-1.7 0-2.9-1.3-2.9-2.9 0-1.7 1.3-3 3-3 1.9 0 3 1.3 3 3zm-5.4 33.8V71.4h4.8v26.4h-4.8zM47.5 78.6c0-2.7-.1-5-.2-7.1h4.3l.3 4.4h.1c1.3-2.5 4.4-5 8.8-5 3.7 0 9.4 2.2 9.4 11.2v15.8h-4.8V82.6c0-4.3-1.6-7.8-6.1-7.8-3.2 0-5.6 2.2-6.5 4.9-.2.6-.3 1.4-.3 2.2v15.9h-4.8V78.6zM84 61.6c2.9-.4 6.3-.8 10.1-.8 6.8 0 11.7 1.6 14.9 4.6 3.3 3 5.2 7.3 5.2 13.2 0 6-1.9 10.9-5.3 14.3-3.4 3.4-9.1 5.3-16.3 5.3-3.4 0-6.2-.2-8.6-.4V61.6zm4.8 32.5c1.2.2 3 .3 4.8.3 10.2 0 15.7-5.7 15.7-15.6.1-8.7-4.9-14.2-14.9-14.2-2.5 0-4.3.2-5.6.5v29zM132.1 97.8l-.4-3.3h-.2a9.79 9.79 0 01-8.1 3.9c-5.4 0-8.1-3.8-8.1-7.6 0-6.4 5.7-9.9 15.9-9.8v-.5c0-2.2-.6-6.1-6-6.1-2.5 0-5 .8-6.9 2l-1.1-3.2c2.2-1.4 5.4-2.3 8.7-2.3 8.1 0 10.1 5.5 10.1 10.8v9.9c0 2.3.1 4.5.4 6.3h-4.3zm-.7-13.4c-5.3-.1-11.2.8-11.2 5.9 0 3.1 2.1 4.6 4.5 4.6 3.4 0 5.6-2.2 6.4-4.4.2-.5.3-1 .3-1.5v-4.6zM146.6 63.9v7.6h6.9v3.7h-6.9v14.2c0 3.3.9 5.1 3.6 5.1 1.3 0 2.2-.2 2.8-.3l.2 3.6c-.9.4-2.4.7-4.3.7-2.2 0-4-.7-5.2-2-1.4-1.4-1.9-3.8-1.9-6.9V75.1h-4.1v-3.7h4.1v-6.3l4.8-1.2zM171.4 97.8l-.4-3.3h-.2a9.79 9.79 0 01-8.1 3.9c-5.4 0-8.1-3.8-8.1-7.6 0-6.4 5.7-9.9 15.9-9.8v-.5c0-2.2-.6-6.1-6-6.1-2.5 0-5 .8-6.9 2l-1.1-3.2c2.2-1.4 5.4-2.3 8.7-2.3 8.1 0 10.1 5.5 10.1 10.8v9.9c0 2.3.1 4.5.4 6.3h-4.3zm-.7-13.4c-5.3-.1-11.2.8-11.2 5.9 0 3.1 2.1 4.6 4.5 4.6 3.4 0 5.6-2.2 6.4-4.4.2-.5.3-1 .3-1.5v-4.6z"/></g></g></a></g><a href="https://ourworldindata.org/grapher/overdose-deaths-due-to-opioids-in-the-us-1999-2015" target="_blank"><text font-size="27" x="15" y="36.6" fill="#555"><tspan x="15" y="36.6">Rate of overdose deaths due to opioids in the US, 1999-2015</tspan></text></a><text font-size="14.4" x="15" y="55.5" fill="#666"><tspan x="15" y="55.52">Shown is the death rate per 100,000 people.</tspan></text></g><g class="LineChart"><defs><clipPath id="a"><path d="M28.14 0h830v956.2h-830z"/></clipPath></defs><g class="AxisBoxView"><g class="HorizontalAxis" fill="#666" text-anchor="middle" font-size="16.2"><text x="38.1" y="556.5">1999</text><text x="156.8" y="556.5">2002</text><text x="236" y="556.5">2004</text><text x="315.1" y="556.5">2006</text><text x="394.2" y="556.5">2008</text><text x="473.4" y="556.5">2010</text><text x="552.5" y="556.5">2012</text><text x="671.2" y="556.5">2015</text></g><g class="VerticalAxis" fill="#666" dominant-baseline="middle" text-anchor="end" font-size="16.2"><text x="33.14" y="535.3">0</text><text x="33.14" y="446.7">2</text><text x="33.14" y="358.1">4</text><text x="33.14" y="269.5">6</text><text x="33.14" y="180.8">8</text><text x="33.14" y="92.2">10</text></g><g class="AxisGridLines"><path stroke="#ccc" d="M38.14 535.3h633.04"/><path stroke="#ddd" stroke-dasharray="3,2" d="M38.14 446.7h633.04M38.14 358.1h633.04M38.14 269.5h633.04M38.14 180.8h633.04M38.14 92.2h633.04"/></g><g class="AxisGridLines" stroke="#ddd" stroke-dasharray="3,2"><path d="M77.7 535.3V78.4M156.8 535.3V78.4M236 535.3V78.4M315.1 535.3V78.4M394.2 535.3V78.4M473.4 535.3V78.4M552.5 535.3V78.4M631.6 535.3V78.4"/></g></g><g clip-path="url(#a)"><g class="HeightedLegend clickable"><g class="legendMark"><path fill="#f6a324" d="M681.18 77.15h10v2.5h-10z"/><text font-size="14.4" x="696.2" y="82.7" fill="#333"><tspan x="696.18" y="82.72">Any Opioids</tspan></text></g><g class="legendMark"><path fill="#34983f" d="M681.18 222.05h10v2.5h-10z"/><text font-size="14.4" x="696.2" y="227.6" fill="#333"><tspan x="696.18" y="227.62">Opioid Pain Relievers</tspan></text></g><g class="legendMark"><path fill="#ca2628" d="M681.18 354.75h10v2.5h-10z"/><text font-size="14.4" x="696.2" y="360.3" fill="#333"><tspan x="696.18" y="360.32">Heroin</tspan></text></g><g class="legendMark"><path fill="#3360a9" d="M681.18 440.35h10v2.5h-10z"/><text font-size="14.4" x="696.2" y="445.9" fill="#333"><tspan x="696.18" y="445.92">Cocaine</tspan></text></g></g><g class="Lines"><g class="key-United-States_0"><path stroke="#f6a324" stroke-linecap="round" d="M38 405l40-2 39-15 40-36 39-14 40-11 40-15 39-37 40-12 39-13 40-10 39-7 40-22 40-3 39-24 40-47 39-59" fill="none" stroke-width="1.5"/><g fill="#f6a324"><circle cx="38" cy="405" r="2"/><circle cx="78" cy="403" r="2"/><circle cx="117" cy="388" r="2"/><circle cx="157" cy="352" r="2"/><circle cx="196" cy="338" r="2"/><circle cx="236" cy="327" r="2"/><circle cx="276" cy="312" r="2"/><circle cx="315" cy="275" r="2"/><circle cx="355" cy="263" r="2"/><circle cx="394" cy="250" r="2"/><circle cx="434" cy="240" r="2"/><circle cx="473" cy="233" r="2"/><circle cx="513" cy="211" r="2"/><circle cx="553" cy="208" r="2"/><circle cx="592" cy="184" r="2"/><circle cx="632" cy="137" r="2"/><circle cx="671" cy="78" r="2"/></g></g><g class="key-United-States_1"><path stroke="#3360a9" stroke-linecap="round" d="M38 473l40 7 39-4 40-11 39-9 40-3 40-11 39-17 40 15 39 21 40 12 39 2 40-6 40 4 39-7 40-6 39-18" fill="none" stroke-width="1.5"/><g fill="#3360a9"><circle cx="38" cy="473" r="2"/><circle cx="78" cy="480" r="2"/><circle cx="117" cy="476" r="2"/><circle cx="157" cy="465" r="2"/><circle cx="196" cy="456" r="2"/><circle cx="236" cy="453" r="2"/><circle cx="276" cy="442" r="2"/><circle cx="315" cy="425" r="2"/><circle cx="355" cy="440" r="2"/><circle cx="394" cy="461" r="2"/><circle cx="434" cy="473" r="2"/><circle cx="473" cy="475" r="2"/><circle cx="513" cy="469" r="2"/><circle cx="553" cy="473" r="2"/><circle cx="592" cy="466" r="2"/><circle cx="632" cy="460" r="2"/><circle cx="671" cy="442" r="2"/></g></g><g class="key-United-States_2"><path stroke="#ca2628" stroke-linecap="round" d="M38 504l40 2 39 2 40-5 39 1 40 3 40-2 39-1 40-4 39-9 40-3 39 4 40-19 40-21 39-32 40-32 39-32" fill="none" stroke-width="1.5"/><g fill="#ca2628"><circle cx="38" cy="504" r="2"/><circle cx="78" cy="506" r="2"/><circle cx="117" cy="508" r="2"/><circle cx="157" cy="503" r="2"/><circle cx="196" cy="504" r="2"/><circle cx="236" cy="507" r="2"/><circle cx="276" cy="505" r="2"/><circle cx="315" cy="504" r="2"/><circle cx="355" cy="500" r="2"/><circle cx="394" cy="491" r="2"/><circle cx="434" cy="488" r="2"/><circle cx="473" cy="492" r="2"/><circle cx="513" cy="473" r="2"/><circle cx="553" cy="452" r="2"/><circle cx="592" cy="420" r="2"/><circle cx="632" cy="388" r="2"/><circle cx="671" cy="356" r="2"/></g></g><g class="key-United-States_3"><path stroke="#34983f" stroke-linecap="round" d="M38 470l40-4 39-17 40-29 39-15 40-19 40-14 39-40 40-9 39-3 40-10 39-13 40-2 40 14 39-1 40-35 39-50" fill="none" stroke-width="1.5"/><g fill="#34983f"><circle cx="38" cy="470" r="2"/><circle cx="78" cy="466" r="2"/><circle cx="117" cy="449" r="2"/><circle cx="157" cy="420" r="2"/><circle cx="196" cy="405" r="2"/><circle cx="236" cy="386" r="2"/><circle cx="276" cy="372" r="2"/><circle cx="315" cy="332" r="2"/><circle cx="355" cy="323" r="2"/><circle cx="394" cy="320" r="2"/><circle cx="434" cy="310" r="2"/><circle cx="473" cy="297" r="2"/><circle cx="513" cy="295" r="2"/><circle cx="553" cy="309" r="2"/><circle cx="592" cy="308" r="2"/><circle cx="632" cy="273" r="2"/><circle cx="671" cy="223" r="2"/></g></g></g></g></g><g class="SourcesFooter" fill="#777"><g class="clickable" fill="#777"><text font-size="12.6" x="15" y="581.6"><tspan x="15" y="581.58">Source: CDC WONDER (2017)</tspan></text></g><text font-size="12.6" x="468" y="581.6"><tspan x="467.96" y="581.58"><a target="_blank" href="https://ourworldindata.org/world-after-capital-data-and-viz/" fill="#777">OurWorldInData.org/world-after-capital-data-and-viz/</a> • <a href="http://creativecommons.org/licenses/by-sa/4.0/deed.en_US" target="_blank" fill="#777">CC BY-SA</a></tspan></text></g></g></svg>

<svg xmlns="http://www.w3.org/2000/svg" version="1.1" style="font-family: 'Helvetica Neue', Helvetica, Arial, sans-serif; font-size: 18px; background-color: white; text-rendering: optimizeLegibility; -webkit-font-smoothing: antialiased;" width="850" height="600"><g class="ChartTab"><g class="HeaderView"><g opacity="0.8" transform="translate(770, 15) scale(0.31)"><a xmlns:xlink="http://www.w3.org/1999/xlink" xlink:href="https://ourworldindata.org" target="_blank"><g><rect x="0" y="0" fill="#1B2543" width="211.2" height="130.1"/><rect x="0" y="112.2" fill="#E63912" width="211.2" height="17.9"/><g><rect x="1.2" y="12.3" fill="none" width="210.2" height="99.2"/><path fill="#FFFFFF" d="M37.8,32.2c0,12.7-7.7,19.4-17.1,19.4c-9.7,0-16.6-7.5-16.6-18.7c0-11.7,7.3-19.3,17.1-19.3 C31.3,13.7,37.8,21.3,37.8,32.2z M9.2,32.8c0,7.9,4.3,14.9,11.8,14.9c7.5,0,11.8-6.9,11.8-15.3c0-7.3-3.8-14.9-11.8-14.9 C13.1,17.5,9.2,24.8,9.2,32.8z"/><path fill="#FFFFFF" d="M62.7,43.8c0,2.7,0.1,5.1,0.2,7.2h-4.3l-0.3-4.3h-0.1c-1.3,2.1-4,4.9-8.8,4.9c-4.2,0-9.1-2.3-9.1-11.6 V24.6h4.8v14.6c0,5,1.5,8.4,5.9,8.4c3.2,0,5.5-2.2,6.3-4.4c0.3-0.7,0.4-1.6,0.4-2.5V24.6h4.8V43.8z"/><path fill="#FFFFFF" d="M67.3,32.8c0-3.1-0.1-5.8-0.2-8.2h4.2l0.2,5.2h0.2c1.2-3.5,4.1-5.8,7.3-5.8c0.5,0,0.9,0.1,1.4,0.2v4.5 c-0.5-0.1-1-0.2-1.6-0.2c-3.4,0-5.8,2.6-6.5,6.2c-0.1,0.7-0.2,1.4-0.2,2.2V51h-4.8V32.8z"/><path fill="#FFFFFF" d="M95.4,51l-9.4-36.8h5l4.4,18.6c1.1,4.6,2.1,9.2,2.7,12.7h0.1c0.6-3.7,1.8-8,3-12.8l4.9-18.5h5l4.5,18.7 c1,4.4,2,8.7,2.6,12.6h0.1c0.8-4,1.8-8.1,3-12.7l4.9-18.5h4.9L120.6,51h-5L111,31.9c-1.1-4.7-1.9-8.3-2.4-12h-0.1 c-0.7,3.7-1.5,7.3-2.8,12L100.4,51H95.4z"/><path fill="#FFFFFF" d="M154.9,37.6c0,9.8-6.8,14-13.2,14c-7.2,0-12.7-5.2-12.7-13.6c0-8.8,5.8-14,13.1-14 C149.8,24,154.9,29.5,154.9,37.6z M133.9,37.9c0,5.8,3.3,10.1,8,10.1c4.6,0,8-4.3,8-10.3c0-4.5-2.2-10.1-7.9-10.1 C136.3,27.6,133.9,32.8,133.9,37.9z"/><path fill="#FFFFFF" d="M158.2,32.8c0-3.1-0.1-5.8-0.2-8.2h4.2l0.2,5.2h0.2c1.2-3.5,4.1-5.8,7.3-5.8c0.5,0,0.9,0.1,1.4,0.2v4.5 c-0.5-0.1-1-0.2-1.6-0.2c-3.4,0-5.8,2.6-6.5,6.2c-0.1,0.7-0.2,1.4-0.2,2.2V51h-4.8V32.8z"/><path fill="#FFFFFF" d="M173.5,12.3h4.8V51h-4.8V12.3z"/><path fill="#FFFFFF" d="M206.5,12.3v31.9c0,2.3,0.1,5,0.2,6.8h-4.3l-0.2-4.6H202c-1.5,2.9-4.7,5.2-9,5.2 c-6.4,0-11.3-5.4-11.3-13.4c-0.1-8.8,5.4-14.2,11.9-14.2c4,0,6.8,1.9,8,4h0.1V12.3H206.5z M201.7,35.4c0-0.6-0.1-1.4-0.2-2 c-0.7-3.1-3.3-5.6-6.9-5.6c-5,0-7.9,4.4-7.9,10.2c0,5.3,2.6,9.8,7.8,9.8c3.2,0,6.2-2.1,7.1-5.7c0.2-0.7,0.2-1.3,0.2-2.1V35.4z"/><path fill="#FFFFFF" d="M42.8,64c0.1,1.6-1.1,2.9-3.1,2.9c-1.7,0-2.9-1.3-2.9-2.9c0-1.7,1.3-3,3-3C41.7,61,42.8,62.3,42.8,64z M37.4,97.8V71.4h4.8v26.4H37.4z"/><path fill="#FFFFFF" d="M47.5,78.6c0-2.7-0.1-5-0.2-7.1h4.3l0.3,4.4h0.1c1.3-2.5,4.4-5,8.8-5c3.7,0,9.4,2.2,9.4,11.2v15.8h-4.8 V82.6c0-4.3-1.6-7.8-6.1-7.8c-3.2,0-5.6,2.2-6.5,4.9c-0.2,0.6-0.3,1.4-0.3,2.2v15.9h-4.8V78.6z"/><path fill="#FFFFFF" d="M84,61.6c2.9-0.4,6.3-0.8,10.1-0.8c6.8,0,11.7,1.6,14.9,4.6c3.3,3,5.2,7.3,5.2,13.2c0,6-1.9,10.9-5.3,14.3 c-3.4,3.4-9.1,5.3-16.3,5.3c-3.4,0-6.2-0.2-8.6-0.4V61.6z M88.8,94.1c1.2,0.2,3,0.3,4.8,0.3c10.2,0,15.7-5.7,15.7-15.6 c0.1-8.7-4.9-14.2-14.9-14.2c-2.5,0-4.3,0.2-5.6,0.5V94.1z"/><path fill="#FFFFFF" d="M132.1,97.8l-0.4-3.3h-0.2c-1.5,2.1-4.3,3.9-8.1,3.9c-5.4,0-8.1-3.8-8.1-7.6c0-6.4,5.7-9.9,15.9-9.8v-0.5 c0-2.2-0.6-6.1-6-6.1c-2.5,0-5,0.8-6.9,2l-1.1-3.2c2.2-1.4,5.4-2.3,8.7-2.3c8.1,0,10.1,5.5,10.1,10.8v9.9c0,2.3,0.1,4.5,0.4,6.3 H132.1z M131.4,84.4c-5.3-0.1-11.2,0.8-11.2,5.9c0,3.1,2.1,4.6,4.5,4.6c3.4,0,5.6-2.2,6.4-4.4c0.2-0.5,0.3-1,0.3-1.5V84.4z"/><path fill="#FFFFFF" d="M146.6,63.9v7.6h6.9v3.7h-6.9v14.2c0,3.3,0.9,5.1,3.6,5.1c1.3,0,2.2-0.2,2.8-0.3l0.2,3.6 c-0.9,0.4-2.4,0.7-4.3,0.7c-2.2,0-4-0.7-5.2-2c-1.4-1.4-1.9-3.8-1.9-6.9V75.1h-4.1v-3.7h4.1v-6.3L146.6,63.9z"/><path fill="#FFFFFF" d="M171.4,97.8l-0.4-3.3h-0.2c-1.5,2.1-4.3,3.9-8.1,3.9c-5.4,0-8.1-3.8-8.1-7.6c0-6.4,5.7-9.9,15.9-9.8v-0.5 c0-2.2-0.6-6.1-6-6.1c-2.5,0-5,0.8-6.9,2l-1.1-3.2c2.2-1.4,5.4-2.3,8.7-2.3c8.1,0,10.1,5.5,10.1,10.8v9.9c0,2.3,0.1,4.5,0.4,6.3 H171.4z M170.7,84.4c-5.3-0.1-11.2,0.8-11.2,5.9c0,3.1,2.1,4.6,4.5,4.6c3.4,0,5.6-2.2,6.4-4.4c0.2-0.5,0.3-1,0.3-1.5V84.4z"/></g></g></a></g><a href="https://ourworldindata.org/grapher/overdose-deaths-due-to-opioids-in-the-us-1999-2015" target="_blank"><text font-size="27.00" x="15.0" y="36.6" fill="#555"><tspan x="15" y="36.6">Rate of overdose deaths due to opioids in the US, 1999-2015</tspan></text></a><text font-size="14.40" x="15.0" y="55.5" fill="#666"><tspan x="15" y="55.519999999999996">Shown is the death rate per 100,000 people.</tspan></text></g><g class="LineChart"><defs><clipPath id="boundsClip-573"><rect x="28.144000000000005" y="0" width="830" height="956.2"></rect></clipPath></defs><g class="AxisBoxView"><g class="HorizontalAxis"><text x="38.1" y="556.5" fill="#666" text-anchor="middle" font-size="16.2">1999</text><text x="156.8" y="556.5" fill="#666" text-anchor="middle" font-size="16.2">2002</text><text x="236" y="556.5" fill="#666" text-anchor="middle" font-size="16.2">2004</text><text x="315.1" y="556.5" fill="#666" text-anchor="middle" font-size="16.2">2006</text><text x="394.2" y="556.5" fill="#666" text-anchor="middle" font-size="16.2">2008</text><text x="473.4" y="556.5" fill="#666" text-anchor="middle" font-size="16.2">2010</text><text x="552.5" y="556.5" fill="#666" text-anchor="middle" font-size="16.2">2012</text><text x="671.2" y="556.5" fill="#666" text-anchor="middle" font-size="16.2">2015</text></g><g class="VerticalAxis"><text x="33.14" y="535.3" fill="#666" dominant-baseline="middle" text-anchor="end" font-size="16.2">0</text><text x="33.14" y="446.7" fill="#666" dominant-baseline="middle" text-anchor="end" font-size="16.2">2</text><text x="33.14" y="358.1" fill="#666" dominant-baseline="middle" text-anchor="end" font-size="16.2">4</text><text x="33.14" y="269.5" fill="#666" dominant-baseline="middle" text-anchor="end" font-size="16.2">6</text><text x="33.14" y="180.8" fill="#666" dominant-baseline="middle" text-anchor="end" font-size="16.2">8</text><text x="33.14" y="92.2" fill="#666" dominant-baseline="middle" text-anchor="end" font-size="16.2">10</text></g><g class="AxisGridLines"><line x1="38.14" y1="535.3" x2="671.18" y2="535.3" stroke="#ccc"></line><line x1="38.14" y1="446.7" x2="671.18" y2="446.7" stroke="#ddd" stroke-dasharray="3,2"></line><line x1="38.14" y1="358.1" x2="671.18" y2="358.1" stroke="#ddd" stroke-dasharray="3,2"></line><line x1="38.14" y1="269.5" x2="671.18" y2="269.5" stroke="#ddd" stroke-dasharray="3,2"></line><line x1="38.14" y1="180.8" x2="671.18" y2="180.8" stroke="#ddd" stroke-dasharray="3,2"></line><line x1="38.14" y1="92.2" x2="671.18" y2="92.2" stroke="#ddd" stroke-dasharray="3,2"></line></g><g class="AxisGridLines"><line x1="77.7" y1="535.30" x2="77.7" y2="78.40" stroke="#ddd" stroke-dasharray="3,2"></line><line x1="156.8" y1="535.30" x2="156.8" y2="78.40" stroke="#ddd" stroke-dasharray="3,2"></line><line x1="236" y1="535.30" x2="236" y2="78.40" stroke="#ddd" stroke-dasharray="3,2"></line><line x1="315.1" y1="535.30" x2="315.1" y2="78.40" stroke="#ddd" stroke-dasharray="3,2"></line><line x1="394.2" y1="535.30" x2="394.2" y2="78.40" stroke="#ddd" stroke-dasharray="3,2"></line><line x1="473.4" y1="535.30" x2="473.4" y2="78.40" stroke="#ddd" stroke-dasharray="3,2"></line><line x1="552.5" y1="535.30" x2="552.5" y2="78.40" stroke="#ddd" stroke-dasharray="3,2"></line><line x1="631.6" y1="535.30" x2="631.6" y2="78.40" stroke="#ddd" stroke-dasharray="3,2"></line></g></g><g clip-path="url(#boundsClip-573)"><g class="HeightedLegend clickable"><g class="legendMark"><rect x="681.184" y="71.2" width="92.90400000000001" height="14.4" fill="#fff" opacity="0"></rect><rect x="681.184" y="77.15" width="10" height="2.5" fill="#f6a324"></rect><text font-size="14.40" x="696.2" y="82.7" fill="#333"><tspan x="696.184" y="82.72000000000001">Any Opioids</tspan></text></g><g class="legendMark"><rect x="681.184" y="216.10000000000002" width="153.816" height="14.4" fill="#fff" opacity="0"></rect><rect x="681.184" y="222.05" width="10" height="2.5" fill="#34983f"></rect><text font-size="14.40" x="696.2" y="227.6" fill="#333"><tspan x="696.184" y="227.62000000000003">Opioid Pain Relievers</tspan></text></g><g class="legendMark"><rect x="681.184" y="348.8" width="57.480000000000004" height="14.4" fill="#fff" opacity="0"></rect><rect x="681.184" y="354.75" width="10" height="2.5" fill="#ca2628"></rect><text font-size="14.40" x="696.2" y="360.3" fill="#333"><tspan x="696.184" y="360.32">Heroin</tspan></text></g><g class="legendMark"><rect x="681.184" y="434.40000000000003" width="67.992" height="14.4" fill="#fff" opacity="0"></rect><rect x="681.184" y="440.35" width="10" height="2.5" fill="#3360a9"></rect><text font-size="14.40" x="696.2" y="445.9" fill="#333"><tspan x="696.184" y="445.92">Cocaine</tspan></text></g></g><g class="Lines"><rect x="38" y="78" width="633" height="457" fill="rgba(255,255,255,0)" opacity="0"></rect><g class="key-United-States_0"><path stroke="#f6a324" stroke-linecap="round" d="M38 405L78 403L117 388L157 352L196 338L236 327L276 312L315 275L355 263L394 250L434 240L473 233L513 211L553 208L592 184L632 137L671 78" fill="none" stroke-width="1.5"></path><g fill="#f6a324"><circle cx="38" cy="405" r="2"></circle><circle cx="78" cy="403" r="2"></circle><circle cx="117" cy="388" r="2"></circle><circle cx="157" cy="352" r="2"></circle><circle cx="196" cy="338" r="2"></circle><circle cx="236" cy="327" r="2"></circle><circle cx="276" cy="312" r="2"></circle><circle cx="315" cy="275" r="2"></circle><circle cx="355" cy="263" r="2"></circle><circle cx="394" cy="250" r="2"></circle><circle cx="434" cy="240" r="2"></circle><circle cx="473" cy="233" r="2"></circle><circle cx="513" cy="211" r="2"></circle><circle cx="553" cy="208" r="2"></circle><circle cx="592" cy="184" r="2"></circle><circle cx="632" cy="137" r="2"></circle><circle cx="671" cy="78" r="2"></circle></g></g><g class="key-United-States_1"><path stroke="#3360a9" stroke-linecap="round" d="M38 473L78 480L117 476L157 465L196 456L236 453L276 442L315 425L355 440L394 461L434 473L473 475L513 469L553 473L592 466L632 460L671 442" fill="none" stroke-width="1.5"></path><g fill="#3360a9"><circle cx="38" cy="473" r="2"></circle><circle cx="78" cy="480" r="2"></circle><circle cx="117" cy="476" r="2"></circle><circle cx="157" cy="465" r="2"></circle><circle cx="196" cy="456" r="2"></circle><circle cx="236" cy="453" r="2"></circle><circle cx="276" cy="442" r="2"></circle><circle cx="315" cy="425" r="2"></circle><circle cx="355" cy="440" r="2"></circle><circle cx="394" cy="461" r="2"></circle><circle cx="434" cy="473" r="2"></circle><circle cx="473" cy="475" r="2"></circle><circle cx="513" cy="469" r="2"></circle><circle cx="553" cy="473" r="2"></circle><circle cx="592" cy="466" r="2"></circle><circle cx="632" cy="460" r="2"></circle><circle cx="671" cy="442" r="2"></circle></g></g><g class="key-United-States_2"><path stroke="#ca2628" stroke-linecap="round" d="M38 504L78 506L117 508L157 503L196 504L236 507L276 505L315 504L355 500L394 491L434 488L473 492L513 473L553 452L592 420L632 388L671 356" fill="none" stroke-width="1.5"></path><g fill="#ca2628"><circle cx="38" cy="504" r="2"></circle><circle cx="78" cy="506" r="2"></circle><circle cx="117" cy="508" r="2"></circle><circle cx="157" cy="503" r="2"></circle><circle cx="196" cy="504" r="2"></circle><circle cx="236" cy="507" r="2"></circle><circle cx="276" cy="505" r="2"></circle><circle cx="315" cy="504" r="2"></circle><circle cx="355" cy="500" r="2"></circle><circle cx="394" cy="491" r="2"></circle><circle cx="434" cy="488" r="2"></circle><circle cx="473" cy="492" r="2"></circle><circle cx="513" cy="473" r="2"></circle><circle cx="553" cy="452" r="2"></circle><circle cx="592" cy="420" r="2"></circle><circle cx="632" cy="388" r="2"></circle><circle cx="671" cy="356" r="2"></circle></g></g><g class="key-United-States_3"><path stroke="#34983f" stroke-linecap="round" d="M38 470L78 466L117 449L157 420L196 405L236 386L276 372L315 332L355 323L394 320L434 310L473 297L513 295L553 309L592 308L632 273L671 223" fill="none" stroke-width="1.5"></path><g fill="#34983f"><circle cx="38" cy="470" r="2"></circle><circle cx="78" cy="466" r="2"></circle><circle cx="117" cy="449" r="2"></circle><circle cx="157" cy="420" r="2"></circle><circle cx="196" cy="405" r="2"></circle><circle cx="236" cy="386" r="2"></circle><circle cx="276" cy="372" r="2"></circle><circle cx="315" cy="332" r="2"></circle><circle cx="355" cy="323" r="2"></circle><circle cx="394" cy="320" r="2"></circle><circle cx="434" cy="310" r="2"></circle><circle cx="473" cy="297" r="2"></circle><circle cx="513" cy="295" r="2"></circle><circle cx="553" cy="309" r="2"></circle><circle cx="592" cy="308" r="2"></circle><circle cx="632" cy="273" r="2"></circle><circle cx="671" cy="223" r="2"></circle></g></g></g></g></g><g style="fill: #777;" class="SourcesFooter"><g style="fill: #777;" class="clickable"><text font-size="12.60" x="15.0" y="581.6"><tspan x="15" y="581.58">Source: CDC WONDER (2017)</tspan></text></g><text font-size="12.60" x="468.0" y="581.6"><tspan x="467.962" y="581.58"><a target='_blank' style='fill: #777;' href='https://ourworldindata.org/world-after-capital-data-and-viz/'>OurWorldInData.org/world-after-capital-data-and-viz/</a> • <a style="fill: #777;" href="http://creativecommons.org/licenses/by-sa/4.0/deed.en_US" target="_blank">CC BY-SA</a></tspan></text></g></g></svg>
